X:1
T:Gaspe Reel
L:1/4
M:C|
I:linebreak $
K:D
V:1 treble
V:1
 "D"f e/f/ e d | F/A/F/A/ B A |"Em" g f/g/ f e | "A"B/A/B/c/ B A |$
 "D"f e/f/ e d | F/A/F/A/ B A | "Em" g f/g/ f e | "A"B c "D"d2 ::$
 "A"e f g3/2 e/ | "D"f g a2 | "A"e f g e | B/A/B/c/ B A |$
 "A"e f g f/e/ | "D"f g a2 |  "A"b a g/f/ e | B c "D"d2 :|
